X:43
T:Fairies Advance,The. 2voices RH.043
R:March
S:Rev.R.Harrison’s MS,c1815,Cumbria
O:England
A:Temple Sowerby,Cumbria
Z:vmp.Simon Wilson. Review PJH, 2008.
M:C
L:1/16
Q:2/4=60
K:D
[V:1]|:F3G|A4A3A (Acde) (fcdB)|A4F3F F4d3c|BAGF d2A2 fedc BAGF|F4E3E E4F3G|
[V:2]|:D3E|F4F3F (FAFA) (dABG)|F4D3D D4F3F|GFED F2F2 dcBA GFED|D4A3A A4D3E|
%
[V:1] (A2c2d2e2) f2c2d2B2|A4F3F F4d3c|B2g2e2d2 c2b2a2c2|d4d3d d4:|
[V:2] F2A2F2A2 d2A2B2G2|F4D3D D4B3A|G2B2c2A2 F2F2G2E2|F4F3F F4:|
%
[V:1]|:f3g|a4a3f b4b3a|gfga g2e2 a4a2g2|f2e2d2c2 B2ef gfed|d2c2B2A2 B2c2d2e2|
[V:2]|:d3e|f4f3d g4g3f|edef e2c2f4f2e2|d2c2B2A2 G2AB edcB|F2A2F2A2 G2A2B2c2|
%
[V:1] f6gf e6fe|d6ed c6dc|B2cd efge dcBA Bdce|d4d3d d4:|
[V:2] d6ed A6dA|F6AF A6FA|F2A2B2G2 F2D2A2G2|F4F3F F4:|

